Modules/BetterCms.Module.Root/Scss/assets/icons/editor-bullet-list.svg

<svg height="14" width="18" xmlns="http://www.w3.org/2000/svg" viewBox="0 0 18 14"><path fill="#303646" fill-rule="evenodd" d="m6 1c0-.55.46-1 1-1h10c.55 0 1 .44 1 1 0 .55-.46 1-1 1h-10c-.55 0-1-.44-1-1m0 6c0-.55.46-1 1-1h10c.55 0 1 .44 1 1 0 .55-.46 1-1 1h-10c-.55 0-1-.44-1-1m0 6c0-.55.46-1 1-1h10c.55 0 1 .44 1 1 0 .55-.46 1-1 1h-10c-.55 0-1-.44-1-1m-6-12c0-.55.44-1 1.01-1h1.98c.56 0 1.01.44 1.01 1 0 .55-.44 1-1.01 1h-1.98c-.56 0-1.01-.44-1.01-1m0 6c0-.55.44-1 1.01-1h1.98c.56 0 1.01.44 1.01 1 0 .55-.44 1-1.01 1h-1.98c-.56 0-1.01-.44-1.01-1m0 6c0-.55.44-1 1.01-1h1.98c.56 0 1.01.44 1.01 1 0 .55-.44 1-1.01 1h-1.98c-.56 0-1.01-.44-1.01-1"/></svg>

<?xml version="1.0" encoding="utf-8"?>
<!-- Generator: Avocode 2.4.5 - http://avocode.com -->
<svg height="14" width="18" xmlns:xlink="http://www.w3.org/1999/xlink" xmlns="http://www.w3.org/2000/svg" viewBox="0 0 18 14">
    <path fill="#303646" fill-rule="evenodd" d="M 6 1 C 6 0.45 6.46 0 7 0 L 17 0 C 17.55 0 18 0.44 18 1 C 18 1.55 17.54 2 17 2 L 7 2 C 6.45 2 6 1.56 6 1 Z M 6 7 C 6 6.45 6.46 6 7 6 L 17 6 C 17.55 6 18 6.44 18 7 C 18 7.55 17.54 8 17 8 L 7 8 C 6.45 8 6 7.56 6 7 Z M 6 13 C 6 12.45 6.46 12 7 12 L 17 12 C 17.55 12 18 12.44 18 13 C 18 13.55 17.54 14 17 14 L 7 14 C 6.45 14 6 13.56 6 13 Z M 0 1 C 0 0.45 0.44 0 1.01 0 L 2.99 0 C 3.55 0 4 0.44 4 1 C 4 1.55 3.56 2 2.99 2 L 1.01 2 C 0.45 2 0 1.56 0 1 Z M 0 7 C 0 6.45 0.44 6 1.01 6 L 2.99 6 C 3.55 6 4 6.44 4 7 C 4 7.55 3.56 8 2.99 8 L 1.01 8 C 0.45 8 0 7.56 0 7 Z M 0 13 C 0 12.45 0.44 12 1.01 12 L 2.99 12 C 3.55 12 4 12.44 4 13 C 4 13.55 3.56 14 2.99 14 L 1.01 14 C 0.45 14 0 13.56 0 13 Z M 0 13" />
</svg>
